icons/outline/load-balancer.svg

<!--
tags: [distribution, traffic, server, network, scalability, optimization, equilibrium, management, routing, stability]
category: Computers
version: "2.16"
unicode: "fa5c"
-->
<svg
  xmlns="http://www.w3.org/2000/svg"
  width="24"
  height="24"
  viewBox="0 0 24 24"
  fill="none"
  stroke="currentColor"
  stroke-width="2"
  stroke-linecap="round"
  stroke-linejoin="round"
>
  <path d="M12 13m-3 0a3 3 0 1 0 6 0a3 3 0 1 0 -6 0m3 7m-1 0a1 1 0 1 0 2 0a1 1 0 1 0 -2 0m1 -4v3m0 -9v-7m-3 3l3 -3l3 3m-3 4v-7m-3 3l3 -3l3 3m-.106 6.227l6.11 -2.224m-3.845 -1.793l3.845 1.793l-1.793 3.845m-10.11 -1.634l-6.075 -2.211m3.845 -1.793l-3.845 1.793l1.793 3.845" />
</svg>

<!--
tags: [distribution, traffic, server, network, scalability, optimization, equilibrium, management, routing, stability]
category: Computers
version: "2.16"
unicode: "fa5c"
-->
<svg
  xmlns="http://www.w3.org/2000/svg"
  width="24"
  height="24"
  viewBox="0 0 24 24"
  fill="none"
  stroke="currentColor"
  stroke-width="2"
  stroke-linecap="round"
  stroke-linejoin="round"
>
    <path d="M12 13m-3 0a3 3 0 1 0 6 0a3 3 0 1 0 -6 0M12 20m-1 0a1 1 0 1 0 2 0a1 1 0 1 0 -2 0M12 16v3M12 10v-7M9 6l3 -3l3 3M12 10v-7M9 6l3 -3l3 3M14.894 12.227l6.11 -2.224M17.159 8.21l3.845 1.793l-1.793 3.845M9.101 12.214l-6.075 -2.211M6.871 8.21l-3.845 1.793l1.793 3.845" />
</svg>
